public/assets/success.svg

<svg width="100" height="100" viewBox="0 0 100 100" fill="none" xmlns="http://www.w3.org/2000/svg">
<path d="M50 6.25C61.6032 6.25 72.7312 10.8594 80.9359 19.0641C89.1406 27.2688 93.75 38.3968 93.75 50C93.75 61.6032 89.1406 72.7312 80.9359 80.9359C72.7312 89.1406 61.6032 93.75 50 93.75C38.3968 93.75 27.2688 89.1406 19.0641 80.9359C10.8594 72.7312 6.25 61.6032 6.25 50C6.25 38.3968 10.8594 27.2688 19.0641 19.0641C27.2688 10.8594 38.3968 6.25 50 6.25ZM44.55 58.6312L34.8312 48.9062C34.4828 48.5578 34.0692 48.2815 33.614 48.0929C33.1588 47.9043 32.6709 47.8073 32.1781 47.8073C31.6854 47.8073 31.1975 47.9043 30.7423 48.0929C30.287 48.2815 29.8734 48.5578 29.525 48.9062C28.8213 49.6099 28.426 50.5643 28.426 51.5594C28.426 52.5545 28.8213 53.5088 29.525 54.2125L41.9 66.5875C42.2474 66.9377 42.6607 67.2156 43.1161 67.4052C43.5715 67.5949 44.0598 67.6925 44.5531 67.6925C45.0464 67.6925 45.5348 67.5949 45.9902 67.4052C46.4455 67.2156 46.8588 66.9377 47.2062 66.5875L72.8312 40.9562C73.1843 40.6093 73.4652 40.1958 73.6577 39.7398C73.8502 39.2837 73.9505 38.7941 73.9528 38.299C73.9551 37.804 73.8593 37.3135 73.6711 36.8556C73.4829 36.3978 73.2058 35.9818 72.856 35.6315C72.5062 35.2813 72.0905 35.0038 71.6329 34.815C71.1753 34.6262 70.6848 34.5299 70.1898 34.5316C69.6948 34.5333 69.205 34.6331 68.7487 34.825C68.2924 35.0169 67.8786 35.2973 67.5313 35.65L44.55 58.6312Z" fill="#089BD9"/>
</svg>

<svg xmlns="http://www.w3.org/2000/svg" width="100" height="100" fill="none" xmlns:v="https://vecta.io/nano"><path d="M50 6.25A43.75 43.75 0 0 1 93.75 50 43.75 43.75 0 0 1 50 93.75 43.75 43.75 0 0 1 6.25 50 43.75 43.75 0 0 1 50 6.25zm-5.45 52.381l-9.719-9.725c-.348-.348-.762-.625-1.217-.813a3.75 3.75 0 0 0-2.872 0 3.75 3.75 0 0 0-2.316 3.466 3.75 3.75 0 0 0 1.099 2.653L41.9 66.588c.347.35.761.628 1.216.818s.944.287 1.437.287.982-.098 1.437-.287.869-.467 1.216-.818l25.625-25.631a3.75 3.75 0 0 0 1.122-2.657 3.75 3.75 0 0 0-1.097-2.667 3.75 3.75 0 0 0-2.666-1.1 3.75 3.75 0 0 0-1.441.293c-.456.192-.87.472-1.217.825L44.55 58.631z" fill="#089bd9"/></svg>
